X:1
T:The Buena Vista Polka
T:The Buena Vista Polka
T:Anonymous
T:To Brigadier General Wool, by a Lady of Virginia. 
T:Public Domain - https://imslp.org/wiki/The_Buena_Vista_Polka_(Anonymous)
T:Public Domain - https://imslp.org/wiki/The_Buena_Vista_Polka_(Anonymous)
C:Anonymous
Z:Public Domain - https://imslp.org/wiki/The_Buena_Vista_Polka_(Anonymous)
%%score { ( 1 3 ) | 2 }
L:1/8
M:2/4
K:C
V:1 treble nm="CON   \n\n\nANIMA" snm="\n"
V:3 treble 
V:2 bass 
V:1
!p! !turn!c[Ge] !wedge![Gc]!wedge![Ge] | !wedge![Gc]!wedge![Ge] !wedge![Gg]2 | %2
 !wedge![df]!wedge![db] !wedge![dd']2 | !wedge![ec']!wedge![ee'] !wedge![gg']2 | %4
 !turn!c[Ge] !wedge![Gc]!wedge![Ge] | !wedge![Gc]!wedge![Ge] !wedge![Gg]2 | %6
 !wedge![df]!wedge![db] !wedge![dd']2 | [ec'][ge'] [ec']2 | %8
!ff! !turn!c[Ge] !wedge![Gc]!wedge![Ge] | !wedge![Gc]!wedge![Ge] !wedge![Gg]2 | %10
 !wedge![df]!wedge![db] !wedge![dd']2 | !wedge![ec']!wedge![ge'] !wedge![ec']2 | %12
 !turn!c[Ge] !wedge![Gc]!wedge![Ge] | !wedge![Gc]!wedge![Ge] !wedge![Gg]2 | %14
 !wedge![df]!wedge![db] !wedge![dd']2 | [ec'][ge'] [ec']2 |][K:G] (fac'f) | (gb [dd']2) | %18
!8va(! (f'a') d'f' | (g'b') d'2 | (f'a' c''f') | (g'b' [d'd'']2)!8va)! | %22
!ff!"^loco"({c'd'g')} (f'/e'/d'/c'/ b/a/g/f/) | gg g2 | (f!p!ac'f) | gb [dd']2 | (fa) (df) | %27
 (gb) d2 |!f! (fac'f) | (gb [dd']2) |!ff!({c'd'e')} f'/e'/d'/c'/b/a/g/f/ | [Bdg][Bdg] [Bdg]2 |] %32
[K:C]{[eg]} [df]>[ce] [Bd]>[df] | [Ge]>[Fd] [Ec]>[Ge] | [Fd]>[Ec] [DB]>[Fd] | %35
 [Cc]>[Ee] !wedge![Gg]2 |!ff!{[eg]} [df]>[ce] [Bd]>[df] | [Ge]>[Fd] [Ec]>[Ge] | %38
 [Ec]>[Ge] [Ge]/[Fd]/[Ec]/[DB]/ | [Ec][Ec] [Ec]2 |]!ff!{[eg]} [df]>[ce] [Bd]>[df] | %41
 [Ge]>[Fd] [Ec]>[Ge] | [Fd]>[Ec] [DB]>[Fd] | [Cc]>[Ee] [Gg]2 |!ff!{[eg]} [df]>[ce] [Bd]>[df] | %45
 [Ge]>[Fd] [Ec]>[Ge] | [FA]>[Af] ([Ge]/[Fd]/[Ec]/[DB]/) | ([Ec][Ec]) [Ec]2!fine!!D.C.! |] %48
V:2
 [CE]G, [CE]G, | [CE]G, [CE]G, | [B,DF]G, [B,DF]G, | [CE]G, [CE]G, | [CE]G, [CE]G, | %5
 [CE]G, [CE]G, | [B,DF]G, [B,DF]G, | [CE]G, [CE]G, | [C,C][CE] [C,C][CE] | [C,C][CE] [C,C][CE] | %10
 [G,,G,][G,B,] [G,,G,][G,B,] | [CE]G, [CE]G, | [C,C][CE] [C,C][CE] | [C,C][CE] [C,C][CE] | %14
 [G,,G,][G,B,] [G,,G,][G,B,] | [C,C][CE] [C,C]2 |][K:G] z4 | z4 | z4 | z4 | z4 | z4 | z4 | %23
[I:staff -1] [GB]D [GB]D |!f![I:staff +1] [D,,D,]!wedge![F,A,C] !wedge![F,A,C]2 | %25
!f! [G,,G,]!wedge![D,G,B,] !wedge![D,G,B,]2 |!f! [D,,D,]!wedge![F,A,C] !wedge![F,A,C]2 | %27
!f! [G,,G,]!wedge![D,G,B,] !wedge![D,G,B,]2 | [D,,D,]!wedge![F,A,C] !wedge![F,A,C]2 | %29
 [G,,G,]!wedge![D,G,B,] !wedge![D,G,B,]2 | [D,,D,][D,F,A,C] [D,F,A,C]2 | [G,,G,][G,,G,] [G,,G,]2 |] %32
[K:C] [G,,G,][G,B,] [G,,G,][G,B,] | [C,,C,][C,E,] [C,,C,][C,E,] | [G,,G,][G,,G,][G,,G,][G,,G,] | %35
 [C,,C,][C,E,] [C,,C,][C,E,] | [G,,G,][G,B,] [G,,G,][G,B,] | [C,,C,][C,E,] [C,,C,][C,E,] | %38
 [F,,F,][F,A,] G,G,, | [C,,C,] [C,E,] [C,,C,]2 |] [G,,G,][G,B,] [G,,G,][G,B,] | %41
 [C,,C,][C,E,] [C,,C,][C,E,] | [G,,G,][G,,G,][G,,G,][G,,G,] | [C,,C,][C,E,] [C,,C,][C,E,] | %44
 [G,,G,][G,B,] [G,,G,][G,B,] | [C,,C,][C,E,] [C,,C,][C,E,] | [F,,F,][F,A,][G,,G,][G,,G,] | %47
 [C,,C,][C,E,] [C,,C,]2 |] %48
V:3
 x4 | x4 | x4 | x4 | x4 | x4 | x4 | x4 | x4 | x4 | x4 | x4 | x4 | x4 | x4 | x4 |] %16
[K:G] [FAc]D[FAc]D | [GB]D [GB]D |!8va(! [fac']d [fac']d | [gb]d [gb]d | [fac']d [fac']d | %21
 [gb]d [gb]d!8va)! | [FA]D [FA]D | x4 | x4 | x4 | x4 | x4 | x4 | x4 | x4 | x4 |][K:C] x4 | x4 | %34
 x4 | x4 | x4 | x4 | x4 | x4 |] x4 | x4 | x4 | x4 | x4 | x4 | x4 | x4 |] %48

